!! 00000] TT[WS
!!!OTL: Ni qishang louzi wo qishang ma
!!!ARE: Asia, China,ÿShanxi Zhongyang
!! Ethnic Group: Han
!! WI, 106 (2)
!!!SCT: J0125
!!!YEM: Copyright 1995, estate of Helmut Schaffrath.
**kern
*ICvox
*Ivox
*M2/4
*k[b-]
*F:
{8cc
8ff
8cc
16b-
16cc
=1
16g
16cc
16f
16d
8.c
16f
=2
16a
16g
16f
16d
8c
16f
16g
=3
4.cc
16b-
16cc}
=4
{16a
16g
16f
16d
8c
16f
16g
=5
8cc
16b-
16cc
16g
16a
16f
16d
=6
8c
16c
16f
16a
16g
16f
16d
=7
2c}
==
!!!AGN: Xiaodiao. Qingge
!!!ONB: ESAC (Essen Associative Code) Database: CHINA
!!!AMT: simple duple
!!!AIN: vox
!!!EED: Helmut Schaffrath
!!!EEV: 1.0
*-
